X:1
T:Title
%%score ( 1 2 ) ( 3 4 )
L:1/8
M:4/4
K:C
V:1 treble nm="Grand Piano, Staff 1"
V:2 treble 
V:3 bass nm="Choir Pad, Wallace (Hamilton)"
V:4 bass 
V:1
 [EG][EG] [CE]2 [EG][EG] [FA]2 | [Fc]2 [Fd]2 [Ec]4 | [Ec]2 [EB]2 [Ec]2 A2- | [CA][B,G] [B,G]6 | %4
w: By~Clarence~G.~Hamilton~(1865\-1932) * * * * *||||
 [CG]2 [CE]2 G2 [^FA]2 | [^Fc]2 [=Fd]2 [Ec]4 | [Ee][Ee] [Ed]2 [Ec][Ec] [EB]2 | %7
w: |||
 [EA]2 ^G-[DG] [CA]4 | [CE]2 [CF]2 [EG]2 [_EA]2 | [DB]2 [Cc]2 [CG][CG] [CA]2 | %10
w: |||
 [EA][FB] [Ec]4 [Ad]2- | [Ad]2 [^Ge]6 | [Ae][Ae] [Af]2 [^Ge][Gd] [=G^c]2 | %13
w: |||
 [Fd]2 [FB]2 [FA][FG] [Ec]2 | z2 G4 G2- | G2 z2 z4 | z8 |] %17
w: ||||
V:2
 x8 | x8 | z4 z2 D2 | x8 | x8 | x8 | x8 | z2 .E2 z4 | x8 | x8 | x8 | x8 | x8 | x8 | D2 D2 C2 A,2 | %15
 B,2 [CG]6- | [CG]2 z2 z4 |] %17
V:3
 [C,C][C,C] [C,G,]2 [C,C][C,C] [F,C]2 | [A,C]2 [G,B,]2 [C,C]4 | z4 z2 G,2 | z8 | %4
 [C,E,]2 [C,G,]2 [E,C]2 [D,C]2 | [D,A,]2 [G,B,]2 [A,C]4 | [A,C][A,C] [^G,B,]2 A,A, [G,D]2 | %7
 [A,C]2 [E,B,]2 A,4 | A,2 [A,C]2 [G,C]2 [^F,C]2 | [F,G,]2 [E,G,]2 [C,E,][C,E,] [A,,E,]2 | %10
 [A,C][A,D] [A,C]4 [F,A,]2- | [F,A,]2 [E,B,]6 | [A,^C][A,C] [D,D]2 [E,B,][E,B,] A,2 | %13
 [D,A,]2 G,2 [G,A,][G,B,] A,2 | [F,A,]2 [G,,E,]4 [G,,F,]2- | [G,,F,]2 [C,E,]6- | [C,E,]2 z2 z4 |] %17
V:4
 x8 | x8 | [C,G,]2 [E,G,]2 [A,,A,]2 D,2- | [D,^F,][G,,G,] [G,,G,]6 | x8 | x8 | x8 | x8 | x8 | x8 | %10
 x8 | x8 | x8 | x8 | x8 | x8 | x8 |] %17

